X: 28066
T: Mr Green's Pipe Box
R: jig
M: 6/8
K: Gmajor
Bc|:ded dBG|B2A ABc|AFD DFA|GAB ABc|
ded dBG|B2A ABc|AFD DFA|GAF GBc:|
|:GDG BdB|c2A A3|FDF AcA|B2G G3|
GDG BdB|c2A A3|FDF AcA|GAF G3:|

